svg/facebook.svg

<svg xmlns="http://www.w3.org/2000/svg" viewBox="0 0 30 64" enable-background="new 0 0 30 64"><style type="text/css">.st0{fill:#343434;}</style><title>facebook</title><desc>Created with Sketch.</desc><path class="st0" d="M22.7 11.2h7.3v-11.2h-9.9c-13.9 0-13.6 10.8-13.6 12.4v8.8h-6.5v10.8h6.5v32h13.3v-32h8.9s.8-5.2 1.2-10.8h-10v-7.4c0-1.1 1.4-2.6 2.8-2.6z"/></svg>

<?xml version="1.0" encoding="utf-8"?>
<!-- Generator: Adobe Illustrator 21.0.0, SVG Export Plug-In . SVG Version: 6.00 Build 0)  -->
<svg version="1.1" id="Layer_1" xmlns="http://www.w3.org/2000/svg" xmlns:xlink="http://www.w3.org/1999/xlink" x="0px" y="0px"
	 viewBox="0 0 30 64" style="enable-background:new 0 0 30 64;" xml:space="preserve">
<style type="text/css">
	.st0{fill:#343434;}
</style>
<title>facebook</title>
<desc>Created with Sketch.</desc>
<path class="st0" d="M22.7,11.2H30V0h-9.9C6.2,0,6.5,10.8,6.5,12.4v8.8H0V32h6.5v32h13.3V32h8.9c0,0,0.8-5.2,1.2-10.8H19.9v-7.4
	C19.9,12.7,21.3,11.2,22.7,11.2z"/>
</svg>
